X:194
T:All the Rage
O:england
M:6/8
L:1/8
Q:180
K:A
Bcc cBA|Bcc c2A|FAA EAA|cBA B2A|Bcc cBA|Bcc c2e|cBA BAG|A3 A2B|
W: A D A B7 E7 A F#m A E7 A
Bcc cBA|Bcc c2A|FAA EAA|cBA B2A|Bcc cBA|Bcc c2e|cBA BAG|A3 A2G|
W: A D A B7 E7 A F#m A E7 A
FAA EAA|FAA E2A|AFA BAB|cec B2A|FAA EAA|FAA E2e|cBA BAG|A3 A2G|
W: D A D A D B7 C#m E7 D A D A A E7 A
FAA EAA|FAA E2A|AFA BAB|cec B2A|FAA EAA|FAA E2e|cBA BAG|A3 b3|
W: D A D A D B7 C#m E7 D A D A A E7 A B7
